build/service/InfoSolid.svg

<svg xmlns="http://www.w3.org/2000/svg" fill="none" viewBox="0 0 24 24" focusable="false"><path d="M0 0H24V24H0z"/><path fill="#74767B" fill-rule="evenodd" d="M3 12C3 7.02944 7.02944 3 12 3C16.9706 3 21 7.02944 21 12C21 16.9706 16.9706 21 12 21C7.02944 21 3 16.9706 3 12ZM12 7.25C11.5306 7.25 11.15 7.63056 11.15 8.1C11.15 8.56944 11.5306 8.95 12 8.95C12.4694 8.95 12.85 8.56944 12.85 8.1C12.85 7.63056 12.4694 7.25 12 7.25ZM14.1 16C14.1 16.4142 13.7642 16.75 13.35 16.75L13.3 16.75C12.1678 16.75 11.25 15.8322 11.25 14.7L11.25 10.95C11.25 10.5358 11.5858 10.2 12 10.2C12.4142 10.2 12.75 10.5358 12.75 10.95L12.75 14.7C12.75 15.0038 12.9962 15.25 13.3 15.25L13.35 15.25C13.7642 15.25 14.1 15.5858 14.1 16Z"/></svg>

<svg xmlns="http://www.w3.org/2000/svg" fill="none" viewBox="0 0 24 24" focusable="false"><path fill="#74767B" fill-rule="evenodd" d="M3 12c0-4.98 4.02-9 9-9 4.97 0 9 4.02 9 9a9 9 0 0 1-9 9c-4.98 0-9-4.03-9-9m9-4.75c-.47 0-.86.38-.86.84 0 .47.39.86.86.86.46 0 .85-.39.85-.86 0-.46-.39-.84-.85-.84M14.1 16c0 .41-.34.75-.75.75h-.06c-1.13 0-2.04-.92-2.04-2.05v-3.75c0-.42.33-.75.75-.75.41 0 .75.33.75.75v3.75c0 .3.24.55.54.55h.06c.41 0 .75.33.75.75"/></svg>
